16x16/apps/fontypython.svg

<svg height="16" width="16" xmlns="http://www.w3.org/2000/svg"><rect fill="#6493a6" height="16" rx=".8" width="16"/><path d="m7.2 2a3.192 3.192 0 0 0 -3.2 3.2v7.998c0 .443.557.801 1 .801s1.014-.358 1-.8v-3.199h2v-2h-.668a1.3 1.3 0 0 1 -1.332-1.332v-1.336a1.3 1.3 0 0 1 1.332-1.332h.668v-2z" fill="#17191e"/><path d="m8 2v2h.668a1.3 1.3 0 0 1 1.332 1.332v1.336a1.3 1.3 0 0 1 -1.332 1.332h-.668v2h.8c1.774 0 3.2-1.426 3.2-3.2v-1.6c0-1.775-1.426-3.2-3.2-3.2z" fill="#f4f4f7"/></svg>

<svg xmlns="http://www.w3.org/2000/svg" width="16" height="16" version="1"><rect style="fill:#6493a6" width="16" height="16" rx=".8" ry=".8"/><path style="fill:#17191e" d="M7.2 2A3.192 3.192 0 0 0 4 5.2V13.198c0 .443.557.801 1 .801.443 0 1.014-.358 1-.8V10h2V8h-.668A1.3 1.3 0 0 1 6 6.668V5.332A1.3 1.3 0 0 1 7.332 4H8V2h-.8z"/><path style="fill:#f4f4f7" d="M8 2v2h.668A1.3 1.3 0 0 1 10 5.332v1.336A1.3 1.3 0 0 1 8.668 8H8v2h.8c1.774 0 3.2-1.426 3.2-3.2V5.2C12 3.425 10.574 2 8.8 2H8z"/></svg>
